!!!COM: Anon.
!!!OTL: Cesta, Ballesta - Verbena
!! Maria Cadilla de Martinez,
!! Juegos Y Canciones Infantiles de Puerto Rico
!! Talleres Graficos, Cas Baldrich, Brau 93, San Juan, P.R.
!! 1940.  Derechos reservados de la Autora
!! page 125
!! Allegretto
**kern
*clefG2
*k[f#]
*M2/2
=1-
{2dd
4b
4b
=
2dd
4b},
{4b
=
4cc
4b
4cc
4ee
=
2dd
4b},
{4b
=
4cc
4b
4cc
4ee
=
2dd
4b},
{4b
=
4cc
4b
4cc
4ee
=
2dd
4b},
{4b
=
4dd
4r
4r
4b
=
4dd
4r
4r
4b
=
4dd
4dd
4dd
4dd
=
2g}
2r
!! Repeation and slight variant
*>verse2
=
{2dd
4b
4b
=
2dd
4b},
{4b
=
4cc
4b
4cc
4ee
=
2dd
4b},
{4b
=
4cc
4b
4cc
4ee
=
2dd
4b},
{4b
=
4cc
4b
4cc
4ee
=
2dd
4b},
{4b
=
4dd
4r
4r
4b
=
4dd
4r
4r
4b
=
4dd
4cc
4b
4a
=
2g}
2r
==
*-
